X: 38228
T: Squire Woods Lamentation On Refusal Of His Halfpence
R: reel
M: 4/4
K: Gmajor
|:GA|B4 B3g|d2 Bd B2 AG|B4 B3g|e2 de B3g|
e2 dB d2 dA|B2 AG A2 GE|G3A BG dB|A4 G2:|
|:d2|ef g2 G2 g2|ga b/a/g e3d|B2 d2 efgf|e4 d3d|
efga g2 G2|g2 a2 e3d|BA B2 dB d2|ed e2 =f4|
ge g2 ed e2|dB d2 BG B2|g3e dg dB|A4 G2:|

